X:1
T:Title
%%score { ( 1 3 ) | 2 }
L:1/8
M:4/4
K:Bb
V:1 treble nm="Grand Piano"
V:3 treble 
V:2 bass 
V:1
 z4 z2[Q:1/4=100] [DF][DF] | [DB][DB] [Fd]>[Ec] [DB]2 [DF]2 | G2 B2 F2 [DF][CE] | %3
 [B,D]3 [DF] [DB]2 [Fd]2 | c6 FF | [DB][DB] [Fd]>[Ec] [DB]2 [DF]2 | G2 B2 F2 Bc | %7
 d3 [Ge] [Fd]2 [Ec]2 |[M:3/4] [DB]6 |[M:1/4] [DF][Fd] |[M:4/4] z2 c4 z2 | %11
 z2 B4[K:bass][K:treble] z2 | [B,EG]3 [B,FA] [B,GB]2 [Fd]2 | c6 FF | %14
 [DB][DB] [Fd]>[Ec] [DB]2 [DF]2 | G2 B2 F2 Bc | d3 [Ge] d2 c2 |[M:3/4] [DB]6 |] %18
V:2
 z4 z2 [B,,B,][B,,B,] | [B,,F,][B,,F,] [B,,B,]>[B,,F,] [B,,F,]2 [B,,B,]2 | %2
 [E,B,E]2 [G,B,E]2 [B,D]2 [B,,B,][B,,F,] | [B,,F,]3 [B,,B,] [B,,F,]2 [B,,B,]2 | %4
 [F,A,F]6 [F,A,E][F,A,E] | [B,,B,][B,,B,] [B,,B,]>[B,,F,] [B,,F,]2 [B,,B,]2 | %6
 [E,B,E]2[K:treble] [G,B,E]2 [B,D]2 [B,D][B,E] | [B,F]3[K:bass] [E,B,] [F,B,]2 [F,A,]2 | %8
[M:3/4] [B,,B,]6 |[M:1/4] [B,,B,][B,,B,] | %10
[M:4/4] [F,B,F][F,A,E][F,A,E][F,A,] [F,A,]2 [F,A,E][F,A,E] | [B,,B,][B,,F,][B,,F,]B,, B,,2 B,,D, | %12
 E,3 E, E,2 [B,,B,]2 | [F,A,F]6 [F,A,E][F,A,E] | [B,,B,][B,,B,] [B,,B,]>[B,,F,] [B,,F,]2 [B,,B,]2 | %15
 [E,B,E]2[K:treble] [G,B,E]2 [B,D]2 [B,D][B,E] | [B,F]3[K:bass] [E,B,] [F,B,F]2 [F,E]2 | %17
[M:3/4] [B,,F,]6 |] %18
V:3
 x8 | x8 | x8 | x8 | x8 | x8 | x8 | x8 |[M:3/4] x6 |[M:1/4] x2 |[M:4/4] dc z E E2 Fc | %11
 [Ec][DB]D[K:bass][F,D] [F,D]2[K:treble] [B,DB][B,FA] | x8 | x8 | x8 | x8 | x8 |[M:3/4] x6 |] %18

